X:1
T: Flannel Jacket
C:
R:Reel
Q: 232
K:G
M:4/4
L:1/8
|:D2|D2 BG AG BG|FG AB c2 Bc|dg gf d2 g2|fd cA BG AF|
D2 BG AG BG|FG AB c2 Bc|dg gf d2 g2|fd cA G2:|
|:((3def)|g2 gf d2 ef|g2 ga bg af|g2 gf d2 g2|fd cA AG G2|
g2 gf d2 ef|g2 ga bg af|g2 gf d2 g2|fd cA G2:|
